src/epub/images/titlepage.svg

<?xml version="1.0" encoding="utf-8"?>
<svg xmlns="http://www.w3.org/2000/svg" xmlns:svg="http://www.w3.org/2000/svg" version="1.1" viewBox="0 0 1400 340">
	<title>The titlepage for the Standard Ebooks edition of The Invisible Man, by H. G. Wells</title>
	<g>
		<path d="m 195.19663,68.245613 18.33918,0 0,61.754387 17.59064,0 0,-61.754387 18.33919,0 0,-15.438597 -54.26901,0 0,15.438597 z"/>
		<path d="m 278.39107,99.029239 24.88889,0 0,30.970761 17.59065,0 0,-77.192984 -17.59065,0 0,30.783626 -24.88889,0 0,-30.783626 -17.59064,0 0,77.192984 17.59064,0 0,-30.970761 z"/>
		<path d="m 381.23611,52.807016 -44.16374,0 0,77.192984 44.16374,0 0,-15.4386 -26.5731,0 0,-15.532161 25.45029,0 0,-15.438597 -25.45029,0 0,-15.345029 26.5731,0 0,-15.438597 z"/>
		<path d="m 444.52412,52.807016 -17.59064,0 0,77.192984 17.59064,0 0,-77.192984 z"/>
		<path d="m 478.39838,82.093566 0.18713,0 L 509.27557,130 l 17.59064,0 0,-77.192984 -17.59064,0 0,47.906434 -0.18714,0 -30.69005,-47.906434 -17.59065,0 0,77.192984 17.59065,0 0,-47.906434 z"/>
		<path d="m 559.2098,130 13.84796,0 32.37426,-77.192984 -19.83625,0 -19.46199,50.713454 -19.46199,-50.713454 -19.83626,0 L 559.2098,130 Z"/>
		<path d="m 630.94226,52.807016 -17.59064,0 0,77.192984 17.59064,0 0,-77.192984 z"/>
		<path d="m 673.84284,51.403507 c -12.44444,0 -25.16959,9.169591 -25.16959,23.578948 0,8.046784 5.4269,15.251462 14.69006,19.836258 9.16959,4.584795 17.40351,7.111107 17.40351,12.725147 0,7.20468 -7.29824,7.57895 -11.1345,7.57895 -8.60819,0 -18.90059,-8.70176 -18.90059,-8.70176 l -8.79532,14.78363 c 0,0 10.94737,10.19883 29.00585,10.19883 15.06433,0 29.09942,-6.45614 29.09942,-24.88889 0,-10.105264 -9.4503,-17.40351 -18.05848,-21.052632 -8.79533,-3.742691 -16.09357,-6.83041 -16.09357,-11.134504 0,-4.210526 3.18128,-6.923976 9.16959,-6.923976 7.95322,0 15.62573,5.333333 15.62573,5.333333 l 7.11111,-14.035088 c 0,0 -9.91813,-7.298246 -23.95322,-7.298246 z"/>
		<path d="m 730.85455,52.807016 -17.59064,0 0,77.192984 17.59064,0 0,-77.192984 z"/>
		<path d="m 747.13818,52.807016 0,77.192984 29.28655,0 c 16,0 25.26315,-8.79532 25.26315,-21.52047 0,-12.444443 -6.8304,-17.777776 -16.46783,-19.461987 6.54971,-3.368421 9.63743,-9.450292 9.63743,-16.561404 0,-14.690058 -10.47954,-19.649123 -23.76609,-19.649123 l -23.95321,0 z m 17.59064,30.222223 0,-16.654971 1.40351,0 c 7.67251,0 11.69591,2.339181 11.69591,7.859649 0,6.456141 -4.11696,8.795322 -11.69591,8.795322 l -1.40351,0 z m 0,33.403511 0,-18.245616 5.52047,0 c 8.32748,0 12.91228,2.526316 12.91228,9.637426 0,6.08187 -4.5848,8.60819 -12.91228,8.60819 l -5.52047,0 z"/>
		<path d="m 832.04608,52.807016 -17.59064,0 0,77.192984 44.16374,0 0,-15.4386 -26.5731,0 0,-61.754384 z"/>
		<path d="m 916.43351,52.807016 -44.16374,0 0,77.192984 44.16374,0 0,-15.4386 -26.5731,0 0,-15.532161 25.45029,0 0,-15.438597 -25.45029,0 0,-15.345029 26.5731,0 0,-15.438597 z"/>
		<path d="m 1025.9437,130 17.5907,0 -6.924,-77.192984 -18.7135,0 -17.1228,44.538013 -17.12278,-44.538013 -18.71345,0 L 958.01389,130 l 17.59065,0 3.64912,-45.754387 0.46784,0 15.81286,45.286547 10.47954,0 15.8129,-45.286547 0.4678,0 L 1025.9437,130 Z"/>
		<path d="m 1094.7858,52.807016 -16.2807,0 L 1047.3473,130 l 18.9005,0 5.7076,-15.4386 29.3802,0 5.7076,15.4386 18.9005,0 -31.1579,-77.192984 z m 0.5615,46.31579 -17.4036,0 8.6082,-22.45614 0.1872,0 8.6082,22.45614 z"/>
		<path d="m 1151.454,82.093566 0.1871,0 30.6901,47.906434 17.5906,0 0,-77.192984 -17.5906,0 0,47.906434 -0.1872,0 -30.69,-47.906434 -17.5907,0 0,77.192984 17.5907,0 0,-47.906434 z"/>
	</g>
	<g>
		<path d="m 473.03673,266.77193 18.66667,0 0,23.22807 13.19298,0 0,-57.89474 -13.19298,0 0,23.08772 -18.66667,0 0,-23.08772 -13.19298,0 0,57.89474 13.19298,0 0,-23.22807 z"/>
		<path d="m 526.2977,274.98246 c -4.42106,0 -8,3.57894 -8,8.07017 0,4.42105 3.57894,8 8,8 4.49123,0 8.07017,-3.57895 8.07017,-8 0,-4.49123 -3.57894,-8.07017 -8.07017,-8.07017 z"/>
		<path d="m 624.37116,257.57895 -26.73684,0 0,10.17544 13.33333,0 c 0,7.08772 -6.24561,11.15789 -12.5614,11.15789 -8.14036,0 -14.73685,-8 -14.73685,-17.82456 0,-10.03509 6.59649,-18.10526 14.73685,-18.10526 5.1228,0 9.54386,2.03508 12.91228,7.43859 l 8.63158,-9.47368 c -5.05264,-6.10526 -12.14036,-9.89474 -22.31579,-9.89474 -16.28071,0 -28.21053,13.40351 -28.21053,30.03509 0,16.5614 12.63158,29.96491 28.21053,29.96491 11.36842,0 23.57894,-6.24561 26.73684,-20.91228 l 0,-12.5614 z"/>
		<path d="m 643.13431,274.98246 c -4.42105,0 -8,3.57894 -8,8.07017 0,4.42105 3.57895,8 8,8 4.49123,0 8.07018,-3.57895 8.07018,-8 0,-4.49123 -3.57895,-8.07017 -8.07018,-8.07017 z"/>
		<path d="m 727.24726,290 14.59649,0 16.49123,-57.89474 -14.5965,0 -9.89473,39.7193 -0.35088,0 -10.52632,-39.7193 -9.96491,0 -10.52631,39.7193 -0.35088,0 -9.89474,-39.7193 -14.66666,0 L 694.05427,290 708.72094,290 717.9841,257.50877 727.24726,290 Z"/>
		<path d="m 799.62226,232.10526 -33.12281,0 0,57.89474 33.12281,0 0,-11.57895 -19.92982,0 0,-11.64912 19.08771,0 0,-11.57895 -19.08771,0 0,-11.50877 19.92982,0 0,-11.57895 z"/>
		<path d="m 825.39968,232.10526 -13.19298,0 0,57.89474 33.1228,0 0,-11.57895 -19.92982,0 0,-46.31579 z"/>
		<path d="m 870.01043,232.10526 -13.19298,0 0,57.89474 33.1228,0 0,-11.57895 -19.92982,0 0,-46.31579 z"/>
		<path d="m 922.7615,231.05263 c -9.33334,0 -18.8772,6.8772 -18.8772,17.68421 0,6.03509 4.07018,11.4386 11.01755,14.8772 6.87719,3.43859 13.05263,5.33333 13.05263,9.54385 0,5.40351 -5.47368,5.68422 -8.35088,5.68422 -6.45614,0 -14.17544,-6.52632 -14.17544,-6.52632 l -6.59649,11.08772 c 0,0 8.21053,7.64912 21.75439,7.64912 11.29824,0 21.82456,-4.8421 21.82456,-18.66666 0,-7.57895 -7.08772,-13.05264 -13.54386,-15.78948 -6.59649,-2.80702 -12.07018,-5.12281 -12.07018,-8.35088 0,-3.15789 2.38597,-5.19298 6.8772,-5.19298 5.96491,0 11.7193,4 11.7193,4 l 5.33333,-10.52631 c 0,0 -7.4386,-5.47369 -17.96491,-5.47369 z"/>
	</g>
</svg>

<?xml version="1.0" encoding="utf-8"?>
<svg xmlns="http://www.w3.org/2000/svg" xmlns:svg="http://www.w3.org/2000/svg" version="1.1" viewBox="0 0 1400 340">
	<title>The titlepage for the Standard Ebooks edition of The Invisible Man, by H. G. Wells</title>
	<g aria-label="THE INVISIBLE MAN">
		<path d="m 195.19663,68.245613 h 18.33918 V 130 h 17.59064 V 68.245613 h 18.33919 V 52.807016 h -54.26901 z"/>
		<path d="m 278.39107,99.029239 h 24.88889 V 130 h 17.59065 V 52.807016 H 303.27996 V 83.590642 H 278.39107 V 52.807016 H 260.80043 V 130 h 17.59064 z"/>
		<path d="M 381.23611,52.807016 H 337.07237 V 130 h 44.16374 v -15.4386 h -26.5731 V 99.029239 H 380.1133 V 83.590642 H 354.66301 V 68.245613 h 26.5731 z"/>
		<path d="M 444.52412,52.807016 H 426.93348 V 130 h 17.59064 z"/>
		<path d="m 478.39838,82.093566 h 0.18713 L 509.27557,130 h 17.59064 V 52.807016 h -17.59064 v 47.906434 h -0.18714 L 478.39838,52.807016 H 460.80773 V 130 h 17.59065 z"/>
		<path d="m 559.2098,130 h 13.84796 L 605.43202,52.807016 H 585.59577 L 566.13378,103.52047 546.67179,52.807016 h -19.83626 z"/>
		<path d="M 630.94226,52.807016 H 613.35162 V 130 h 17.59064 z"/>
		<path d="m 673.84284,51.403507 c -12.44444,0 -25.16959,9.169591 -25.16959,23.578948 0,8.046784 5.4269,15.251462 14.69006,19.836258 9.16959,4.584795 17.40351,7.111107 17.40351,12.725147 0,7.20468 -7.29824,7.57895 -11.1345,7.57895 -8.60819,0 -18.90059,-8.70176 -18.90059,-8.70176 l -8.79532,14.78363 c 0,0 10.94737,10.19883 29.00585,10.19883 15.06433,0 29.09942,-6.45614 29.09942,-24.88889 0,-10.105264 -9.4503,-17.40351 -18.05848,-21.052632 -8.79533,-3.742691 -16.09357,-6.83041 -16.09357,-11.134504 0,-4.210526 3.18128,-6.923976 9.16959,-6.923976 7.95322,0 15.62573,5.333333 15.62573,5.333333 l 7.11111,-14.035088 c 0,0 -9.91813,-7.298246 -23.95322,-7.298246 z"/>
		<path d="M 730.85455,52.807016 H 713.26391 V 130 h 17.59064 z"/>
		<path d="M 747.13818,52.807016 V 130 h 29.28655 c 16,0 25.26315,-8.79532 25.26315,-21.52047 0,-12.444443 -6.8304,-17.777776 -16.46783,-19.461987 6.54971,-3.368421 9.63743,-9.450292 9.63743,-16.561404 0,-14.690058 -10.47954,-19.649123 -23.76609,-19.649123 z m 17.59064,30.222223 V 66.374268 h 1.40351 c 7.67251,0 11.69591,2.339181 11.69591,7.859649 0,6.456141 -4.11696,8.795322 -11.69591,8.795322 z m 0,33.403511 V 98.187134 h 5.52047 c 8.32748,0 12.91228,2.526316 12.91228,9.637426 0,6.08187 -4.5848,8.60819 -12.91228,8.60819 z"/>
		<path d="M 832.04608,52.807016 H 814.45544 V 130 h 44.16374 v -15.4386 h -26.5731 z"/>
		<path d="M 916.43351,52.807016 H 872.26977 V 130 h 44.16374 v -15.4386 h -26.5731 V 99.029239 H 915.3107 V 83.590642 H 889.86041 V 68.245613 h 26.5731 z"/>
		<path d="m 1025.9437,130 h 17.5907 l -6.924,-77.192984 h -18.7135 L 1000.7741,97.345029 983.65132,52.807016 H 964.93787 L 958.01389,130 h 17.59065 l 3.64912,-45.754387 h 0.46784 l 15.81286,45.286547 h 10.47954 l 15.8129,-45.286547 h 0.4678 z"/>
		<path d="m 1094.7858,52.807016 h -16.2807 L 1047.3473,130 h 18.9005 l 5.7076,-15.4386 h 29.3802 L 1107.0432,130 h 18.9005 z m 0.5615,46.31579 h -17.4036 l 8.6082,-22.45614 h 0.1872 z"/>
		<path d="m 1151.454,82.093566 h 0.1871 L 1182.3312,130 h 17.5906 V 52.807016 h -17.5906 v 47.906434 h -0.1872 l -30.69,-47.906434 h -17.5907 V 130 h 17.5907 z"/>
	</g>
	<g aria-label="H. G. WELLS">
		<path d="M 473.03673,266.77193 H 491.7034 V 290 h 13.19298 V 232.10526 H 491.7034 v 23.08772 H 473.03673 V 232.10526 H 459.84375 V 290 h 13.19298 z"/>
		<path d="m 526.2977,274.98246 c -4.42106,0 -8,3.57894 -8,8.07017 0,4.42105 3.57894,8 8,8 4.49123,0 8.07017,-3.57895 8.07017,-8 0,-4.49123 -3.57894,-8.07017 -8.07017,-8.07017 z"/>
		<path d="m 624.37116,257.57895 h -26.73684 v 10.17544 h 13.33333 c 0,7.08772 -6.24561,11.15789 -12.5614,11.15789 -8.14036,0 -14.73685,-8 -14.73685,-17.82456 0,-10.03509 6.59649,-18.10526 14.73685,-18.10526 5.1228,0 9.54386,2.03508 12.91228,7.43859 l 8.63158,-9.47368 c -5.05264,-6.10526 -12.14036,-9.89474 -22.31579,-9.89474 -16.28071,0 -28.21053,13.40351 -28.21053,30.03509 0,16.5614 12.63158,29.96491 28.21053,29.96491 11.36842,0 23.57894,-6.24561 26.73684,-20.91228 z"/>
		<path d="m 643.13431,274.98246 c -4.42105,0 -8,3.57894 -8,8.07017 0,4.42105 3.57895,8 8,8 4.49123,0 8.07018,-3.57895 8.07018,-8 0,-4.49123 -3.57895,-8.07017 -8.07018,-8.07017 z"/>
		<path d="m 727.24726,290 h 14.59649 l 16.49123,-57.89474 h -14.5965 l -9.89473,39.7193 h -0.35088 l -10.52632,-39.7193 h -9.96491 l -10.52631,39.7193 h -0.35088 l -9.89474,-39.7193 H 677.56305 L 694.05427,290 h 14.66667 l 9.26316,-32.49123 z"/>
		<path d="M 799.62226,232.10526 H 766.49945 V 290 h 33.12281 v -11.57895 h -19.92982 v -11.64912 h 19.08771 v -11.57895 h -19.08771 v -11.50877 h 19.92982 z"/>
		<path d="M 825.39968,232.10526 H 812.2067 V 290 h 33.1228 v -11.57895 h -19.92982 z"/>
		<path d="M 870.01043,232.10526 H 856.81745 V 290 h 33.1228 v -11.57895 h -19.92982 z"/>
		<path d="m 922.7615,231.05263 c -9.33334,0 -18.8772,6.8772 -18.8772,17.68421 0,6.03509 4.07018,11.4386 11.01755,14.8772 6.87719,3.43859 13.05263,5.33333 13.05263,9.54385 0,5.40351 -5.47368,5.68422 -8.35088,5.68422 -6.45614,0 -14.17544,-6.52632 -14.17544,-6.52632 l -6.59649,11.08772 c 0,0 8.21053,7.64912 21.75439,7.64912 11.29824,0 21.82456,-4.8421 21.82456,-18.66666 0,-7.57895 -7.08772,-13.05264 -13.54386,-15.78948 -6.59649,-2.80702 -12.07018,-5.12281 -12.07018,-8.35088 0,-3.15789 2.38597,-5.19298 6.8772,-5.19298 5.96491,0 11.7193,4 11.7193,4 l 5.33333,-10.52631 c 0,0 -7.4386,-5.47369 -17.96491,-5.47369 z"/>
	</g>
</svg>
